Adwaita++-Dark/actions/22/coordinate.svg

<svg height="22" viewBox="0 0 22 22" width="22" xmlns="http://www.w3.org/2000/svg">
  <path d="m4.078125 1v9.208984l-3.078125 3.080078v1.402344c1.1965-1.193 2.9710375-2.961125 3.7109375-3.703125l10.2890625.009766v-.998047h-9.921875v-9z" fill="#e6ddff" transform="translate(3 3)"/>
</svg>

<svg xmlns="http://www.w3.org/2000/svg" width="22" height="22" viewBox="0 0 22 22">
 <defs>
  <style id="current-color-scheme" type="text/css">
   .ColorScheme-Text { color:#E6DDFF; } .ColorScheme-Highlight { color:#4285f4; }
  </style>
 </defs>
 <path style="fill:currentColor" class="ColorScheme-Text" d="M 4.078125 1 L 4.078125 10.208984 L 1 13.289062 L 1 14.691406 C 2.1965 13.498406 3.9710375 11.730281 4.7109375 10.988281 L 15 10.998047 L 15 10 L 5.078125 10 L 5.078125 1 L 4.078125 1 z" transform="translate(3 3)"/>
</svg>
